svgs/icons/lg/location.svg

<svg xmlns="http://www.w3.org/2000/svg" viewBox="0 0 24 24" enable-background="new 0 0 24 24"><path d="M18.096 4.768c-1.612-1.843-3.85-2.766-6.088-2.768-2.239.002-4.477.925-6.089 2.768-2.804 3.207-2.458 7.836.611 11.232l4.773 5.707c.195.193.449.289.705.291.255-.002.51-.098.705-.291l4.773-5.707c3.068-3.396 3.414-8.025.61-11.232zm-3.977 7.336c-.541.537-1.287.869-2.112.871-.825-.002-1.571-.334-2.112-.871-.541-.538-.877-1.282-.877-2.104 0-1.641 1.338-2.971 2.99-2.975 1.652.004 2.99 1.334 2.99 2.975-.001.822-.336 1.566-.879 2.104z" fill="#34363D"/><path d="M14.121 12.104c.543-.538.879-1.282.879-2.104 0-1.641-1.339-2.971-2.992-2.975v5.951c.825-.003 1.572-.335 2.113-.872z" fill="none"/></svg>

<?xml version="1.0" encoding="utf-8"?>
<!-- Generator: Adobe Illustrator 18.1.1, SVG Export Plug-In . SVG Version: 6.00 Build 0)  -->
<!DOCTYPE svg PUBLIC "-//W3C//DTD SVG 1.1//EN" "http://www.w3.org/Graphics/SVG/1.1/DTD/svg11.dtd">
<svg version="1.1" xmlns="http://www.w3.org/2000/svg" xmlns:xlink="http://www.w3.org/1999/xlink" x="0px" y="0px"
	 viewBox="0 0 24 24" style="enable-background:new 0 0 24 24;" xml:space="preserve">
<g id="aw">
	<path style="fill:#34363D;" d="M18.096,4.768C16.484,2.925,14.246,2.002,12.008,2l0,0l0,0h0l0,0
		C9.769,2.002,7.531,2.925,5.919,4.768C3.115,7.975,3.461,12.604,6.53,16l4.773,5.707c0.195,0.193,0.449,0.289,0.705,0.291l0,0h0
		l0,0l0,0c0.255-0.002,0.51-0.098,0.705-0.291L17.486,16C20.554,12.604,20.9,7.975,18.096,4.768z M14.119,12.104
		c-0.541,0.537-1.287,0.869-2.112,0.871c-0.825-0.002-1.571-0.334-2.112-0.871C9.354,11.566,9.018,10.822,9.018,10
		c0-1.641,1.338-2.971,2.99-2.975c1.652,0.004,2.99,1.334,2.99,2.975C14.997,10.822,14.662,11.566,14.119,12.104z"/>
</g>
<g id="guides">
</g>
</svg>
